ui/StatusQ/src/assets/img/icons/communities/menu/view-profile.svg

<svg fill="none" height="16" viewBox="0 0 16 16" width="16" xmlns="http://www.w3.org/2000/svg"><path clip-rule="evenodd" d="m7.15888 3.42099c.04854-.27184-.13248-.53157-.40432-.58011s-.53156.13248-.58011.40432l-.35354 1.97982c-.02839.15898-.16665.27474-.32814.27474h-1.8261c-.27615 0-.5.22386-.5.5s.22385.5.5.5h1.52848c.20754 0 .36463.18762.32814.39193l-.41666 2.33333c-.02839.15898-.16665.27474-.32815.27474h-1.77848c-.27614 0-.5.22386-.5.5s.22386.50004.5.50004h1.48087c.20754 0 .36462.1876.32814.3919l-.30122 1.6868c-.04855.2719.13247.5316.40431.5801.27185.0486.53157-.1324.58011-.4043l.35354-1.9798c.02839-.159.16666-.2747.32815-.2747h2.6403c.20754 0 .36462.1876.32814.3919l-.30122 1.6868c-.04854.2719.13248.5316.40432.5801.27184.0486.53156-.1324.58011-.4043l.35355-1.9798c.0284-.159.1666-.2747.3281-.2747h1.8261c.2762 0 .5-.2239.5-.50004s-.2238-.5-.5-.5h-1.5285c-.2075 0-.3646-.18762-.3281-.39193l.4167-2.33333c.0284-.15898.1666-.27474.3281-.27474h1.7785c.2761 0 .5-.22386.5-.5s-.2239-.5-.5-.5h-1.4809c-.2075 0-.3646-.18762-.3281-.39193l.3012-1.68684c.0486-.27184-.1325-.53157-.4043-.58011s-.5316.13248-.5801.40432l-.3536 1.97982c-.0283.15898-.16661.27474-.3281.27474h-2.6403c-.20754 0-.36463-.18762-.32814-.39193zm2.69775 3.4707c.03648-.20431-.1206-.39193-.32815-.39193h-2.6403c-.16149 0-.29975.11576-.32814.27474l-.41667 2.33333c-.03648.20431.1206.39193.32815.39193h2.6403c.16149 0 .29975-.11576.32814-.27474z" fill="#4360df" fill-rule="evenodd"/></svg>

<svg width="16" height="16" viewBox="0 0 16 16" fill="none" xmlns="http://www.w3.org/2000/svg">
<path fill-rule="evenodd" clip-rule="evenodd" d="M7.15888 3.42099C7.20742 3.14915 7.0264 2.88942 6.75456 2.84088C6.48272 2.79234 6.223 2.97336 6.17445 3.2452L5.82091 5.22502C5.79252 5.384 5.65426 5.49976 5.49277 5.49976H3.66667C3.39052 5.49976 3.16667 5.72362 3.16667 5.99976C3.16667 6.2759 3.39052 6.49976 3.66667 6.49976H5.19515C5.40269 6.49976 5.55978 6.68738 5.52329 6.89169L5.10663 9.22502C5.07824 9.384 4.93998 9.49976 4.77848 9.49976H3C2.72386 9.49976 2.5 9.72362 2.5 9.99976C2.5 10.2759 2.72386 10.4998 3 10.4998H4.48087C4.68841 10.4998 4.84549 10.6874 4.80901 10.8917L4.50779 12.5785C4.45924 12.8504 4.64026 13.1101 4.9121 13.1586C5.18395 13.2072 5.44367 13.0262 5.49221 12.7543L5.84575 10.7745C5.87414 10.6155 6.01241 10.4998 6.1739 10.4998H8.8142C9.02174 10.4998 9.17882 10.6874 9.14234 10.8917L8.84112 12.5785C8.79258 12.8504 8.9736 13.1101 9.24544 13.1586C9.51728 13.2072 9.777 13.0262 9.82555 12.7543L10.1791 10.7745C10.2075 10.6155 10.3457 10.4998 10.5072 10.4998H12.3333C12.6095 10.4998 12.8333 10.2759 12.8333 9.99976C12.8333 9.72362 12.6095 9.49976 12.3333 9.49976H10.8048C10.5973 9.49976 10.4402 9.31214 10.4767 9.10783L10.8934 6.7745C10.9218 6.61552 11.06 6.49976 11.2215 6.49976H13C13.2761 6.49976 13.5 6.2759 13.5 5.99976C13.5 5.72362 13.2761 5.49976 13 5.49976H11.5191C11.3116 5.49976 11.1545 5.31214 11.191 5.10783L11.4922 3.42099C11.5408 3.14915 11.3597 2.88942 11.0879 2.84088C10.8161 2.79234 10.5563 2.97336 10.5078 3.2452L10.1542 5.22502C10.1259 5.384 9.98759 5.49976 9.8261 5.49976H7.1858C6.97826 5.49976 6.82117 5.31214 6.85766 5.10783L7.15888 3.42099ZM9.85663 6.89169C9.89311 6.68738 9.73603 6.49976 9.52848 6.49976H6.88818C6.72669 6.49976 6.58843 6.61552 6.56004 6.7745L6.14337 9.10783C6.10689 9.31214 6.26397 9.49976 6.47152 9.49976H9.11182C9.27331 9.49976 9.41157 9.384 9.43996 9.22502L9.85663 6.89169Z" fill="#4360DF"/>
</svg>
